X: 496
T: Cricket on the Hearth
C:Traditional, Arr. Kim Davis
B: jims roots
M:4/4
L:1/8
Q: 1/4=100
K:D
V:1 
x FE |: "D"DFAg fedc | "G"BGBd g2 dB | "D"Adfa fedf | "A"efec ABAF |
"D"DFAg fedc | "G"BGBd g4 | "A"Ace^g aeBc| [1 d"D"BAF D2 FE:| [2 d"D"BAF D2 FG ||
|:"D"A2 AB AFAc | dAFE D2 [DA][DA]| "A"[A,2E2] A,E [C2E2] CE | [A,2E2] A,E [C2E2] FG | "D"A2 AB AFAc |
dAFE DFA,B, | "A"A,^G,A,B, CA,B,C| [1 "D"D2 FE D2 FG :| [2 "D"D6x2|]
% abcbook-tune_id 6298c245cddbe251a9553f1f


% abcbook-boost 0
% abcbook-tablature 
% abcbook-transpose 
% abcbook-lastupdated 1654178373842
% abcbook-soundfonts 
% abcbook-repeats 1


